X: 36150
T: Scotch Mary
R: reel
M: 4/4
K: Bminor
|:Bc|dF~F2 defe|dF~F2 A2Bc|dF~F2 defe|1 dBcA B2Bc:|2 dBcA B2de||
|:fbba fgfe|^defg a2ga|fbba fgfe|dBcA B2de|
fbba fgfe|^defg a2ga|bgaf gefe|1 dBcA B2de:|2 dBcA B2||

